images_elementary_svg/cmd/sc_insertcaptiondialog.svg

<svg viewBox="0 0 16 16" xmlns="http://www.w3.org/2000/svg" xmlns:xlink="http://www.w3.org/1999/xlink"><radialGradient id="a" cx="64.575" cy="48.605" gradientTransform="matrix(0 .3853 -.4196 0 32.39 -16.793)" gradientUnits="userSpaceOnUse" r="31"><stop offset="0" stop-color="#cdf87e"/><stop offset=".262" stop-color="#a2e34f"/><stop offset=".661" stop-color="#68b723"/><stop offset="1" stop-color="#1d7e0d"/></radialGradient><path d="m.5.5v11h4v4l3.5-4h7.5v-11h-13.75z" fill="#e9e9e9" stroke="#8c8c8c" stroke-linejoin="round"/><path d="m1 1v10h4l.018 3.084 2.982-3.084h7v-10zm1 1h12v8h-6.39l-.61.602-1 1.076v-1.678h-4z" fill="#fff"/><path d="m10.5 10.5v-2.007h3v2.007h2.007v3h-2.007v2.007h-3v-2.007h-2.007v-3z" fill="url(#a)"/><path d="m10.5 10.5v-2.007h3v2.007h2.007v3h-2.007v2.007h-3v-2.007h-2.007v-3z" fill="none" opacity=".5" stroke="#0f5a00" stroke-linecap="round" stroke-linejoin="round"/><g fill="#fff"><path d="m11 9h2v1h-2z" opacity=".5"/><path d="m11 14h2v1h-2z" opacity=".2"/><path d="m9 11v1h2v-1zm4 0v1h2v-1z" opacity=".4"/></g></svg>

<svg xmlns="http://www.w3.org/2000/svg" xmlns:xlink="http://www.w3.org/1999/xlink" viewBox="0 0 16 16"><defs><radialGradient cx="64.575" cy="48.605" r="31" fx="64.575" fy="48.605" id="b" xlink:href="#a" gradientUnits="userSpaceOnUse" gradientTransform="matrix(0 .3853 -.4196 0 32.39 -16.793)"/><linearGradient id="a"><stop offset="0" stop-color="#cdf87e"/><stop offset=".262" stop-color="#a2e34f"/><stop offset=".661" stop-color="#68b723"/><stop offset="1" stop-color="#1d7e0d"/></linearGradient></defs><path d="M.5.5v11h4v4l3.5-4h7.5V.5H1.75z" fill="#e9e9e9" stroke="#8c8c8c" stroke-linejoin="round"/><path d="M1 1v10h4l.018 3.084L8 11h7V1zm1 1h12v8H7.61l-.61.602-1 1.076V10H2z" fill="#fff"/><g color="#000"><path d="M10.5 10.5V8.493h3V10.5h2.007v3H13.5v2.007h-3V13.5H8.493v-3z" overflow="visible" fill="url(#b)"/><path d="M10.5 10.5V8.493h3V10.5h2.007v3H13.5v2.007h-3V13.5H8.493v-3z" style="isolation:auto;mix-blend-mode:normal" overflow="visible" opacity=".5" solid-color="#000000" fill="none" stroke="#0f5a00" stroke-linecap="round" stroke-linejoin="round"/><path style="isolation:auto;mix-blend-mode:normal" overflow="visible" d="M11 9h2v1h-2z" opacity=".5" solid-color="#000000" fill="#fff"/><path style="isolation:auto;mix-blend-mode:normal" overflow="visible" d="M11 14h2v1h-2z" opacity=".2" solid-color="#000000" fill="#fff"/><path style="isolation:auto;mix-blend-mode:normal" d="M9 11v1h2v-1zm4 0v1h2v-1z" overflow="visible" opacity=".4" solid-color="#000000" fill="#fff"/></g></svg>
